X: 44
T: No_138_Sandhill_Crane_Dance_Song_(b).krn
N: Derived from No_138_Sandhill_Crane_Dance_Song_(b).krn
%%abc-version 2.0
%%abcx-abcm2ps-target-version 5.9.1 (29 Sep 2008)
%%abc-creator hum2abc beta
%%abcx-conversion-date 2019/03/15 08:38:45
%%humdrum-veritas 1305190060
%%humdrum-veritas-data 2999820940
%%linebreak <none>
%%barnumbers 0
L: 1/16
M: 4/8
K: Eb clef=bass
[K:clef=bass][M:4/8]z6B,B, ]|:  
B,4CC B,2 | 
B,6A,2 ||  
[M:3/8]G,2E, z B,2 | 
B,4B,A, | 
A,4G,E, | 
A,4G,2 | 
E,4E,E, | 
(E,3C,)C,2 | 
B,,2 z2 E,2 | 
E,4B,B, | 
A,4G,E, | 
A,4G,2 | 
E,4E,E, | 
(E,3C,)C,2 | 
B,,2 z2 C2 :|]  
(E,3C,)C,2 | 
B,,2 z2 E,E, | 
E,6- | 
E,4z2



